client/src/assets/img/home.svg

<svg xmlns="http://www.w3.org/2000/svg" viewBox="0 0 500 371"><defs><linearGradient id="A" x1="98.165" x2="98.165" y1="-10.422" y2="389.4" gradientTransform="matrix(-.9989 -.046811 .046646 -.99539 283.19 384.13)" gradientUnits="userSpaceOnUse"><stop stop-color="rgba(90, 17, 235, 1)" offset="0"/><stop stop-color="rgba(53, 10, 140, 1)" offset="1"/></linearGradient><linearGradient id="B" x1="305.16" x2="305.16" y1="55.123" y2="266.49" gradientUnits="userSpaceOnUse"><stop stop-color="rgba(90, 17, 235, 1)" offset="0"/><stop stop-color="rgba(53, 10, 140, 1)" offset="1"/></linearGradient><linearGradient id="C" x1="325.44" x2="325.44" y1="64.231" y2="256.59" gradientUnits="userSpaceOnUse"><stop stop-color="rgba(90, 17, 235, 1)" offset="0"/><stop stop-color="rgba(53, 10, 140, 1)" offset="1"/></linearGradient><linearGradient id="D" x1="303.58" x2="303.58" y1="69.324" y2="284.38" gradientTransform="matrix(-6.4e-5 1 -1.8509 -.000135 648.77 -20.019)" gradientUnits="userSpaceOnUse"><stop stop-color="rgba(90, 17, 235, 1)" offset="0"/><stop stop-color="rgba(53, 10, 140, 1)" offset="1"/></linearGradient></defs><path transform="matrix(.13568 .99075 -.99075 .13568 423.07 -163.35)" d="M89.951 64.074l9.89-3.722c9.913-4.008 29.718-11.036 45.111 3.722 15.495 14.761 26.687 52.714 43.522 59.953 16.881 7.519 39.651-14.972 55.716-3.726 16.168 11.245 26.017 56.227 42.08 67.473 16.17 11.244 38.936-11.246 58.597-18.767 19.708-7.238 36.823-.209 52.12 15.041 15.455 14.97 29.611 37.461 49.271 29.939 19.708-7.237 45.434-45.189 65.04-52.428 19.764-7.522 33.914 14.969 40.7 26.215l7.13 11.244-12.921 67.472h-9.179-45.826-54.999-55.002-55.002-55.001-55.005-55.001-55.003H60.47h-9.283L89.951 64.07z" fill="url(#B)" fill-opacity=".73"/><path transform="matrix(-.28717 .95788 -.95788 -.28717 572.55 -105.25999999999999)" d="M32.816 72.377l9.325-3.387c9.231-3.648 28.081-10.044 51.112 3.387 23.144 13.433 51.173 47.973 72.672 54.561 21.666 6.843 37.364-13.626 59.678-3.391 22.427 10.234 51.893 51.17 74.205 61.404 22.428 10.233 38.123-10.234 56.609-17.079 18.656-6.587 40.376-.19 63.505 13.689 23.188 13.623 48.065 34.091 66.55 27.246 18.656-6.586 31.194-41.125 49.738-47.713 18.599-6.845 43.47 13.623 55.587 23.857l12.495 10.233 13.768 61.404h-10.086-50.355-60.434-60.438-60.438-60.437-60.441-60.436-60.439-50.238-10.2L32.816 72.378z" fill="url(#C)" fill-opacity=".4"/><path fill="url(#A)" d="M-20.316999435425-10.421999931335h236.960006713867v399.820007324219H-20.316999435425z"/><path transform="matrix(-.049323 .99878 -.99878 -.049323 495.19 -117.64)" d="M60.961 78.432l9.034-3.788c9.004-4.078 27.174-11.229 45.024 3.788 17.951 15.018 35.949 53.633 53.83 60.998 17.978 7.651 36.21-15.233 54.073-3.791 17.965 11.442 35.938 57.208 53.799 68.65 17.967 11.441 36.195-11.442 54.133-19.094 18.035-7.364 36.153-.213 53.999 15.303 17.951 15.232 36.011 38.115 53.947 30.462 18.035-7.364 36.323-45.978 54.258-53.343 18.038-7.653 36.093 15.23 44.836 26.672l9.081 11.441-.26 68.648h-9.021-45.041-54.056-54.059-54.059-54.058-54.062-54.058-54.06-44.935-9.124l.779-205.95z" fill="url(#D)"/></svg>

<?xml version="1.0" encoding="utf-8"?>
<svg viewBox="0 0 500 371" xmlns="http://www.w3.org/2000/svg">
  <defs>
    <linearGradient gradientUnits="userSpaceOnUse" x1="98.165" y1="-10.422" x2="98.165" y2="389.402" id="gradient-0" gradientTransform="matrix(-0.998904, -0.046811, 0.046646, -0.995389, 283.193575, 384.126279)">
      <stop offset="0" style="stop-color: rgba(90, 17, 235, 1)"/>
      <stop offset="1" style="stop-color: rgba(53, 10, 140, 1)"/>
    </linearGradient>
    <linearGradient gradientUnits="userSpaceOnUse" x1="305.157" y1="55.123" x2="305.157" y2="266.49" id="gradient-1">
      <stop offset="0" style="stop-color: rgba(90, 17, 235, 1)"/>
      <stop offset="1" style="stop-color: rgba(53, 10, 140, 1)"/>
    </linearGradient>
    <linearGradient gradientUnits="userSpaceOnUse" x1="325.438" y1="64.231" x2="325.438" y2="256.588" id="gradient-2">
      <stop offset="0" style="stop-color: rgba(90, 17, 235, 1)"/>
      <stop offset="1" style="stop-color: rgba(53, 10, 140, 1)"/>
    </linearGradient>
    <linearGradient gradientUnits="userSpaceOnUse" x1="303.578" y1="69.324" x2="303.578" y2="284.378" id="gradient-3" gradientTransform="matrix(-0.000064, 1, -1.850947, -0.000135, 648.769387, -20.018714)">
      <stop offset="0" style="stop-color: rgba(90, 17, 235, 1)"/>
      <stop offset="1" style="stop-color: rgba(53, 10, 140, 1)"/>
    </linearGradient>
  </defs>
  <path d="M 89.951 64.074 L 99.841 60.352 C 109.754 56.344 129.559 49.316 144.952 64.074 C 160.447 78.835 171.639 116.788 188.474 124.027 C 205.355 131.546 228.125 109.055 244.19 120.301 C 260.358 131.546 270.207 176.528 286.27 187.774 C 302.44 199.018 325.206 176.528 344.867 169.007 C 364.575 161.769 381.69 168.798 396.987 184.048 C 412.442 199.018 426.598 221.509 446.258 213.987 C 465.966 206.75 491.692 168.798 511.298 161.559 C 531.062 154.037 545.212 176.528 551.998 187.774 L 559.128 199.018 L 546.207 266.49 L 537.028 266.49 C 527.883 266.49 509.423 266.49 491.202 266.49 C 472.882 266.49 454.421 266.49 436.203 266.49 C 417.881 266.49 399.42 266.49 381.201 266.49 C 362.879 266.49 344.416 266.49 326.199 266.49 C 307.875 266.49 289.419 266.49 271.198 266.49 C 252.874 266.49 234.415 266.49 216.193 266.49 C 197.87 266.49 179.409 266.49 161.192 266.49 C 142.87 266.49 124.408 266.49 106.189 266.49 C 87.867 266.49 69.408 266.49 60.47 266.49 L 51.187 266.49 L 89.951 64.074 Z" style="fill: url(#gradient-1); fill-opacity: 0.73;" transform="matrix(0.135675, 0.990753, -0.990753, 0.135675, 423.074869, -163.346706)"/>
  <path d="M 32.816 72.377 L 42.141 68.99 C 51.372 65.342 70.222 58.946 93.253 72.377 C 116.397 85.81 144.426 120.35 165.925 126.938 C 187.591 133.781 203.289 113.312 225.603 123.547 C 248.03 133.781 277.496 174.717 299.808 184.951 C 322.236 195.184 337.931 174.717 356.417 167.872 C 375.073 161.285 396.793 167.682 419.922 181.561 C 443.11 195.184 467.987 215.652 486.472 208.807 C 505.128 202.221 517.666 167.682 536.21 161.094 C 554.809 154.249 579.68 174.717 591.797 184.951 L 604.292 195.184 L 618.06 256.588 L 607.974 256.588 C 597.925 256.588 577.641 256.588 557.619 256.588 C 537.488 256.588 517.203 256.588 497.185 256.588 C 477.052 256.588 456.766 256.588 436.747 256.588 C 416.614 256.588 396.326 256.588 376.309 256.588 C 356.174 256.588 335.894 256.588 315.872 256.588 C 295.737 256.588 275.454 256.588 255.431 256.588 C 235.297 256.588 215.012 256.588 194.995 256.588 C 174.862 256.588 154.575 256.588 134.556 256.588 C 114.423 256.588 94.14 256.588 84.318 256.588 L 74.118 256.588 L 32.816 72.377 Z" style="fill: url(#gradient-2); fill-opacity: 0.4;" transform="matrix(-0.287173, 0.957879, -0.957879, -0.287173, 572.547826, -105.255419)"/>
  <rect x="-20.317" y="-10.422" width="236.964" height="399.824" style="stroke: rgb(0, 0, 0); stroke-width: 0px; fill: url(#gradient-0);"/>
  <path fill-opacity="1" d="M 60.961 78.432 L 69.995 74.644 C 78.999 70.566 97.169 63.415 115.019 78.432 C 132.97 93.45 150.968 132.065 168.849 139.43 C 186.827 147.081 205.059 124.197 222.922 135.639 C 240.887 147.081 258.86 192.847 276.721 204.289 C 294.688 215.73 312.916 192.847 330.854 185.195 C 348.889 177.831 367.007 184.982 384.853 200.498 C 402.804 215.73 420.864 238.613 438.8 230.96 C 456.835 223.596 475.123 184.982 493.058 177.617 C 511.096 169.964 529.151 192.847 537.894 204.289 L 546.975 215.73 L 546.715 284.378 L 537.694 284.378 C 528.706 284.378 510.562 284.378 492.653 284.378 C 474.648 284.378 456.503 284.378 438.597 284.378 C 420.589 284.378 402.445 284.378 384.538 284.378 C 366.53 284.378 348.384 284.378 330.479 284.378 C 312.469 284.378 294.33 284.378 276.421 284.378 C 258.411 284.378 240.269 284.378 222.359 284.378 C 204.35 284.378 186.206 284.378 168.301 284.378 C 150.293 284.378 132.148 284.378 114.241 284.378 C 96.233 284.378 78.091 284.378 69.306 284.378 L 60.182 284.378 L 60.961 78.432 Z" style="fill: url(#gradient-3);" transform="matrix(-0.049323, 0.998783, -0.998783, -0.049323, 495.18755, -117.635261)"/>
</svg>
